;Generated with Cura_SteamEngine 13.12
M92 E282.000000
M109 T0 S220.000000
T0

;
; *** G-code Prefix ***
; For cura, it already sets the temp beforehand
; so no need to set temperature here
M205 X10 ; set jerk speed to 10
G90 ; use absolute coordinates
M82 ; absolute extrusion distances
G21 ; set units to millimeters
M106 S0 ; fan speed 0
; M104 S220 ; Set tempterature 190, don't wait
M301 P24.72 I0.88 D231.1  ; set pid, looks like new code is correct.
G28  ;  home X Y Z
G0 Z20 ;  put bed down a little
G0 X120 Y115 Z2 F7500 ; go to 120, 115, 2.
G92 E0 ; clear E
G1 Y1 Z2 F7500 ;
; M109 S220  ; set temp 190 and wait
G1 F100 E30
G1 F100 Z15 E32
G1 F100 E31
G1 X100 Z0 E30 F7500
G1 X90 Z0 E30 F7500
G1 X90 Z0.3 E32 F7500
G92 E0  ; clear E

;Layer count: 73
;LAYER:0
M107
G0 F4920 X133.55 Y96.15 Z0.30
;TYPE:SKIRT
G1 F4800 E0.00000
G1 F1440 X135.45 Y94.25 E0.16977
G1 X139.65 Y94.25 E0.43421
G1 X140.12 Y94.72 E0.47663
G1 X141.24 Y94.72 E0.54696
G1 X141.24 Y94.72 E0.54709
G1 X148.19 Y94.73 E0.98563
G1 X149.06 Y94.73 E1.04051
G1 X149.07 Y94.73 E1.04089
G1 X151.52 Y94.73 E1.19551
G1 X153.04 Y94.73 E1.29126
G1 X153.04 Y94.73 E1.29158
G1 X162.35 Y94.74 E1.87918
G1 X162.91 Y94.84 E1.91474
G1 X163.46 Y95.03 E1.95155
G1 X163.80 Y95.20 E1.97547
G1 X164.23 Y95.49 E2.00797
G1 X164.51 Y95.72 E2.03112
G1 X164.90 Y96.13 E2.06681
G1 X165.19 Y96.53 E2.09777
G1 X165.49 Y97.13 E2.14029
G1 X165.65 Y97.66 E2.17509
G1 X165.71 Y98.20 E2.20910
G1 X165.73 Y98.40 E2.22180
G1 X165.73 Y101.62 E2.42480
G1 X165.71 Y101.85 E2.43961
G1 X165.65 Y102.27 E2.46663
G1 X165.57 Y102.58 E2.48656
G1 X165.43 Y102.99 E2.51378
G1 X165.25 Y103.34 E2.53880
G1 X164.95 Y103.80 E2.57337
G1 X164.67 Y104.13 E2.60039
G1 X164.24 Y104.51 E2.63725
G1 X163.85 Y104.77 E2.66610
G1 X163.36 Y105.00 E2.70044
G1 X163.46 Y105.04 E2.70680
G1 X163.80 Y105.21 E2.73073
G1 X164.23 Y105.49 E2.76322
G1 X164.51 Y105.72 E2.78637
G1 X164.90 Y106.13 E2.82206
G1 X165.19 Y106.53 E2.85302
G1 X165.49 Y107.13 E2.89554
G1 X165.65 Y107.66 E2.93034
G1 X165.71 Y108.20 E2.96435
G1 X165.73 Y108.40 E2.97706
G1 X165.73 Y111.62 E3.18005
G1 X165.71 Y111.85 E3.19486
G1 X165.65 Y112.27 E3.22188
G1 X165.57 Y112.58 E3.24181
G1 X165.43 Y112.99 E3.26903
G1 X165.25 Y113.34 E3.29405
G1 X164.95 Y113.80 E3.32862
G1 X164.67 Y114.13 E3.35564
G1 X164.24 Y114.51 E3.39250
G1 X163.85 Y114.77 E3.42135
G1 X163.31 Y115.03 E3.45953
G1 X162.87 Y115.16 E3.48848
G1 X162.36 Y115.25 E3.52122
G1 X162.10 Y115.27 E3.53780
G1 X160.73 Y115.28 E3.62429
G1 X160.72 Y115.28 E3.62473
G1 X159.20 Y115.27 E3.72030
G1 X158.17 Y115.27 E3.78552
G1 X158.16 Y115.27 E3.78590
G1 X156.34 Y115.27 E3.90096
G1 X155.27 Y115.27 E3.96821
G1 X155.27 Y116.68 E4.05703
G1 X155.27 Y117.64 E4.11733
G1 X155.27 Y117.64 E4.11753
G1 X155.29 Y194.72 E8.98024
G1 X156.21 Y194.73 E9.03834
G1 X164.75 Y194.73 E9.57700
G1 X165.62 Y194.05 E9.64633
G1 X168.70 Y194.05 E9.84075
G1 X168.84 Y194.06 E9.84959
G1 X169.03 Y194.07 E9.86168
G1 X169.16 Y194.09 E9.86976
G1 X170.80 Y194.36 E9.97514
G1 X171.28 Y194.52 E10.00690
G1 X171.93 Y194.85 E10.05255
G1 X172.34 Y195.15 E10.08456
G1 X173.12 Y195.93 E10.15423
G1 X173.47 Y196.46 E10.19439
G1 X173.82 Y197.31 E10.25233
G1 X173.95 Y197.94 E10.29293
G1 X173.95 Y202.05 E10.55239
G1 X173.70 Y202.92 E10.60959
G1 X173.01 Y204.03 E10.69185
G1 X172.35 Y204.64 E10.74887
G1 X171.25 Y205.19 E10.82631
G1 X171.08 Y205.26 E10.83787
G1 X170.84 Y205.35 E10.85379
G1 X170.68 Y205.40 E10.86469
G1 X169.62 Y205.66 E10.93335
G1 X169.44 Y205.70 E10.94542
G1 X169.15 Y205.74 E10.96348
G1 X168.94 Y205.75 E10.97650
G1 X166.25 Y205.75 E11.14682
G1 X165.53 Y205.27 E11.20085
G1 X163.12 Y205.27 E11.35319
G1 X158.38 Y205.28 E11.65233
G1 X158.37 Y205.28 E11.65258
G1 X152.71 Y205.27 E12.00981
G1 X151.13 Y205.28 E12.10923
G1 X151.13 Y205.28 E12.10948
G1 X145.13 Y205.27 E12.48803
G1 X142.99 Y205.27 E12.62271
G1 X142.99 Y205.27 E12.62296
G1 X141.43 Y205.27 E12.72125
G1 X138.19 Y205.28 E12.92569
G1 X138.19 Y205.28 E12.92601
G1 X134.30 Y205.27 E13.17133
G1 X133.13 Y205.75 E13.25061
G1 X131.17 Y205.75 E13.37450
G1 X130.98 Y205.74 E13.38632
G1 X130.76 Y205.71 E13.40086
G1 X130.62 Y205.69 E13.40922
G1 X129.46 Y205.46 E13.48430
G1 X129.36 Y205.44 E13.49031
G1 X129.22 Y205.40 E13.49945
G1 X129.12 Y205.37 E13.50616
G1 X127.75 Y204.91 E13.59736
G1 X126.93 Y204.31 E13.66201
G1 X126.06 Y203.11 E13.75511
G1 X125.75 Y202.13 E13.81958
G1 X125.75 Y197.66 E14.10169
G1 X126.06 Y196.69 E14.16616
G1 X126.93 Y195.49 E14.25921
G1 X127.75 Y194.89 E14.32377
G1 X129.10 Y194.44 E14.41356
G1 X129.18 Y194.41 E14.41865
G1 X129.26 Y194.39 E14.42422
G1 X129.31 Y194.38 E14.42708
G1 X130.28 Y194.13 E14.49074
G1 X130.49 Y194.09 E14.50401
G1 X130.78 Y194.06 E14.52204
G1 X130.96 Y194.05 E14.53386
G1 X134.28 Y194.05 E14.74335
G1 X135.14 Y194.72 E14.81197
G1 X137.10 Y194.73 E14.93586
G1 X139.04 Y194.72 E15.05849
G1 X139.05 Y194.72 E15.05900
G1 X140.58 Y194.73 E15.15520
G1 X141.99 Y194.73 E15.24408
G1 X141.99 Y194.73 E15.24440
G1 X144.03 Y194.73 E15.37327
G1 X144.58 Y194.73 E15.40797
G1 X144.73 Y194.59 E15.42081
G1 X144.73 Y194.17 E15.44687
G1 X144.72 Y191.00 E15.64702
G1 X144.72 Y191.00 E15.64728
G1 X144.73 Y187.77 E15.85097
G1 X144.73 Y187.04 E15.89651
G1 X144.73 Y187.04 E15.89670
G1 X144.73 Y180.99 E16.27872
G1 X144.73 Y115.27 E20.42388
G1 X143.75 Y115.27 E20.48576
G1 X142.71 Y115.27 E20.55093
G1 X142.71 Y115.27 E20.55131
G1 X140.88 Y115.27 E20.66637
G1 X138.70 Y115.27 E20.80433
G1 X138.67 Y115.27 E20.80603
G1 X137.61 Y115.26 E20.87297
G1 X137.08 Y115.16 E20.90703
G1 X136.54 Y114.97 E20.94311
G1 X136.20 Y114.80 E20.96703
G1 X135.77 Y114.51 E20.99952
G1 X135.49 Y114.28 E21.02268
G1 X135.10 Y113.87 E21.05837
G1 X134.81 Y113.47 E21.08933
G1 X134.51 Y112.87 E21.13184
G1 X134.35 Y112.34 E21.16677
G1 X134.29 Y111.80 E21.20078
G1 X134.27 Y111.60 E21.21342
G1 X134.27 Y110.97 E21.25329
G1 X133.55 Y110.25 E21.31779
G1 X133.55 Y106.15 E21.57598
G1 X135.45 Y104.25 E21.74575
G1 X135.46 Y104.25 E21.74625
G1 X135.10 Y103.87 E21.77949
G1 X134.81 Y103.47 E21.81045
G1 X134.51 Y102.87 E21.85296
G1 X134.35 Y102.34 E21.88789
G1 X134.29 Y101.80 E21.92190
G1 X134.27 Y101.60 E21.93454
G1 X134.27 Y100.97 E21.97441
G1 X133.55 Y100.25 E22.03891
G1 X133.55 Y96.15 E22.29710
G1 F4800 E17.79710
G0 F4920 X138.27 Y98.73
;TYPE:WALL-INNER
G1 F4800 E22.29710
G1 F1440 X161.73 Y98.74 E23.77668
G1 X161.73 Y101.27 E23.93653
G1 X160.63 Y101.28 E24.00554
G1 X159.14 Y101.27 E24.09953
G1 X158.25 Y101.28 E24.15586
G1 X156.31 Y101.27 E24.27830
G1 X154.17 Y101.28 E24.41305
G1 X153.49 Y101.27 E24.45601
G1 X153.21 Y101.29 E24.47420
G1 X152.94 Y101.34 E24.49139
G1 X152.63 Y101.44 E24.51183
G1 X152.19 Y101.69 E24.54341
G1 X151.97 Y101.88 E24.56188
G1 X151.78 Y102.08 E24.57942
G1 X151.62 Y102.31 E24.59687
G1 X151.49 Y102.54 E24.61399
G1 X151.35 Y102.90 E24.63834
G1 X151.28 Y103.30 E24.66360
G1 X151.27 Y103.98 E24.70650
G1 X151.29 Y106.80 E24.88426
G1 X151.41 Y107.27 E24.91534
G1 X151.62 Y107.70 E24.94496
G1 X151.91 Y108.06 E24.97427
G1 X152.11 Y108.25 E24.99209
G1 X152.35 Y108.41 E25.00985
G1 X152.76 Y108.60 E25.03883
G1 X153.03 Y108.68 E25.05648
G1 X153.28 Y108.72 E25.07210
G1 X153.49 Y108.73 E25.08568
G1 X154.86 Y108.72 E25.17223
G1 X156.31 Y108.73 E25.26369
G1 X157.16 Y108.73 E25.31693
G1 X159.15 Y108.73 E25.44240
G1 X161.26 Y108.73 E25.57607
G1 X161.73 Y108.73 E25.60522
G1 X161.73 Y111.27 E25.76539
G1 X160.72 Y111.28 E25.82885
G1 X159.20 Y111.27 E25.92467
G1 X158.17 Y111.27 E25.98996
G1 X156.34 Y111.27 E26.10527
G1 X154.16 Y111.27 E26.24247
G1 X153.47 Y111.27 E26.28600
G1 X152.94 Y111.34 E26.32012
G1 X152.84 Y111.37 E26.32653
G1 X152.34 Y111.60 E26.36162
G1 X151.98 Y111.87 E26.38959
G1 X151.77 Y112.09 E26.40855
G1 X151.64 Y112.28 E26.42370
G1 X151.52 Y112.48 E26.43834
G1 X151.39 Y112.78 E26.45883
G1 X151.28 Y113.29 E26.49138
G1 X151.27 Y113.49 E26.50445
G1 X151.27 Y115.08 E26.60437
G1 X151.27 Y116.68 E26.70524
G1 X151.29 Y197.75 E31.81970
G1 X151.36 Y197.99 E31.83539
G1 X151.50 Y198.26 E31.85421
G1 X151.62 Y198.39 E31.86535
G1 X151.69 Y198.46 E31.87156
G1 X151.92 Y198.60 E31.88857
G1 X152.10 Y198.67 E31.90070
G1 X152.19 Y198.69 E31.90663
G1 X152.53 Y198.73 E31.92856
G1 X154.82 Y198.72 E32.07302
G1 X156.21 Y198.73 E32.16045
G1 X166.58 Y198.73 E32.81455
G1 X166.95 Y198.76 E32.83816
G1 X167.16 Y198.82 E32.85190
G1 X167.16 Y201.19 E33.00147
G1 X166.88 Y201.25 E33.01984
G1 X165.59 Y201.27 E33.10092
G1 X163.12 Y201.27 E33.25711
G1 X158.37 Y201.28 E33.55631
G1 X152.71 Y201.27 E33.91392
G1 X151.13 Y201.28 E34.01327
G1 X145.13 Y201.27 E34.39208
G1 X142.99 Y201.27 E34.52669
G1 X141.43 Y201.27 E34.62523
G1 X138.19 Y201.28 E34.82967
G1 X133.43 Y201.27 E35.13001
G1 X133.09 Y201.24 E35.15133
G1 X132.84 Y201.18 E35.16765
G1 X132.84 Y198.81 E35.31728
G1 X133.15 Y198.75 E35.33751
G1 X134.84 Y198.72 E35.44401
G1 X137.10 Y198.73 E35.58670
G1 X139.05 Y198.72 E35.70946
G1 X140.57 Y198.73 E35.80572
G1 X141.99 Y198.73 E35.89504
G1 X147.54 Y198.72 E36.24502
G1 X147.90 Y198.67 E36.26779
G1 X148.01 Y198.63 E36.27510
G1 X148.20 Y198.54 E36.28881
G1 X148.40 Y198.38 E36.30478
G1 X148.49 Y198.27 E36.31403
G1 X148.62 Y198.02 E36.33130
G1 X148.71 Y197.71 E36.35223
G1 X148.73 Y197.47 E36.36728
G1 X148.73 Y195.70 E36.47855
G1 X148.73 Y194.18 E36.57482
G1 X148.72 Y191.00 E36.77535
G1 X148.73 Y187.77 E36.97904
G1 X148.71 Y113.19 E41.68386
G1 X148.57 Y112.70 E41.71585
G1 X148.48 Y112.47 E41.73103
G1 X148.32 Y112.22 E41.75023
G1 X147.92 Y111.78 E41.78778
G1 X147.51 Y111.51 E41.81860
G1 X147.22 Y111.39 E41.83852
G1 X146.75 Y111.29 E41.86884
G1 X146.51 Y111.27 E41.88387
G1 X145.26 Y111.28 E41.96247
G1 X143.75 Y111.27 E42.05823
G1 X142.71 Y111.27 E42.12346
G1 X140.88 Y111.27 E42.23877
G1 X138.72 Y111.27 E42.37553
G1 X138.27 Y111.27 E42.40348
G1 X138.27 Y108.73 E42.56371
G1 X139.41 Y108.72 E42.63518
G1 X140.85 Y108.73 E42.72665
G1 X141.70 Y108.73 E42.77995
G1 X143.69 Y108.73 E42.90542
G1 X145.82 Y108.73 E43.03972
G1 X146.52 Y108.73 E43.08375
G1 X146.80 Y108.71 E43.10151
G1 X147.23 Y108.61 E43.12955
G1 X147.71 Y108.37 E43.16341
G1 X148.07 Y108.08 E43.19279
G1 X148.14 Y108.01 E43.19842
G1 X148.44 Y107.60 E43.23104
G1 X148.62 Y107.19 E43.25901
G1 X148.69 Y106.93 E43.27598
G1 X148.72 Y106.68 E43.29180
G1 X148.73 Y106.02 E43.33357
G1 X148.71 Y103.19 E43.51184
G1 X148.65 Y102.92 E43.52987
G1 X148.48 Y102.47 E43.55956
G1 X148.32 Y102.22 E43.57876
G1 X147.92 Y101.78 E43.61630
G1 X147.51 Y101.51 E43.64713
G1 X147.22 Y101.39 E43.66705
G1 X146.75 Y101.29 E43.69736
G1 X146.51 Y101.27 E43.71240
G1 X145.18 Y101.28 E43.79649
G1 X143.69 Y101.27 E43.89054
G1 X142.79 Y101.28 E43.94681
G1 X140.85 Y101.27 E44.06925
G1 X138.72 Y101.28 E44.20349
G1 X138.27 Y101.27 E44.23201
G1 X138.27 Y98.73 E44.39217
G0 F4920 X138.06 Y98.23
;TYPE:WALL-OUTER
G1 F1440 X162.03 Y98.24 E45.90392
G1 X162.06 Y98.25 E45.90634
G1 X162.13 Y98.30 E45.91176
G1 X162.18 Y98.35 E45.91605
G1 X162.22 Y98.42 E45.92079
G1 X162.23 Y101.49 E46.11445
G1 X162.21 Y101.59 E46.12108
G1 X162.21 Y101.61 E46.12261
G1 X162.17 Y101.67 E46.12713
G1 X162.11 Y101.72 E46.13177
G1 X162.04 Y101.76 E46.13680
G1 X161.94 Y101.77 E46.14344
G1 X160.63 Y101.78 E46.22551
G1 X159.15 Y101.77 E46.31944
G1 X158.25 Y101.78 E46.37584
G1 X156.31 Y101.77 E46.49822
G1 X154.17 Y101.78 E46.63308
G1 X153.49 Y101.77 E46.67604
G1 X153.28 Y101.78 E46.68937
G1 X152.85 Y101.90 E46.71750
G1 X152.49 Y102.09 E46.74330
G1 X152.32 Y102.23 E46.75729
G1 X152.18 Y102.39 E46.77064
G1 X152.05 Y102.57 E46.78455
G1 X151.94 Y102.75 E46.79746
G1 X151.84 Y103.02 E46.81628
G1 X151.78 Y103.33 E46.83574
G1 X151.77 Y103.98 E46.87693
G1 X151.78 Y106.71 E47.04896
G1 X151.88 Y107.09 E47.07374
G1 X152.01 Y107.39 E47.09446
G1 X152.03 Y107.41 E47.09636
G1 X152.26 Y107.71 E47.12007
G1 X152.41 Y107.85 E47.13337
G1 X152.58 Y107.97 E47.14631
G1 X152.93 Y108.13 E47.17026
G1 X153.12 Y108.19 E47.18327
G1 X153.32 Y108.22 E47.19546
G1 X153.50 Y108.23 E47.20696
G1 X154.86 Y108.22 E47.29313
G1 X156.31 Y108.23 E47.38453
G1 X157.16 Y108.23 E47.43784
G1 X159.15 Y108.23 E47.56324
G1 X161.27 Y108.23 E47.69742
G1 X162.03 Y108.24 E47.74493
G1 X162.13 Y108.30 E47.75281
G1 X162.18 Y108.35 E47.75709
G1 X162.22 Y108.42 E47.76183
G1 X162.23 Y111.49 E47.95549
G1 X162.21 Y111.59 E47.96212
G1 X162.21 Y111.61 E47.96366
G1 X162.17 Y111.67 E47.96817
G1 X162.11 Y111.72 E47.97282
G1 X162.04 Y111.76 E47.97784
G1 X161.94 Y111.77 E47.98449
G1 X160.72 Y111.78 E48.06100
G1 X159.20 Y111.77 E48.15676
G1 X158.17 Y111.77 E48.22212
G1 X156.34 Y111.77 E48.33737
G1 X154.16 Y111.77 E48.47463
G1 X153.49 Y111.77 E48.51709
G1 X153.47 Y111.77 E48.51829
G1 X153.01 Y111.84 E48.54790
G1 X152.61 Y112.02 E48.57549
G1 X152.32 Y112.23 E48.59807
G1 X152.19 Y112.37 E48.61016
G1 X152.17 Y112.39 E48.61155
G1 X151.95 Y112.74 E48.63818
G1 X151.87 Y112.93 E48.65125
G1 X151.78 Y113.31 E48.67539
G1 X151.77 Y113.50 E48.68739
G1 X151.77 Y115.08 E48.78706
G1 X151.77 Y116.67 E48.88780
G1 X151.79 Y197.70 E53.99880
G1 X151.82 Y197.81 E54.00620
G1 X151.90 Y197.95 E54.01652
G1 X151.97 Y198.04 E54.02359
G1 X152.10 Y198.13 E54.03343
G1 X152.25 Y198.19 E54.04367
G1 X152.28 Y198.20 E54.04557
G1 X152.36 Y198.22 E54.05058
G1 X152.45 Y198.22 E54.05658
G1 X152.54 Y198.23 E54.06221
G1 X154.82 Y198.22 E54.20610
G1 X156.21 Y198.23 E54.29359
G1 X166.60 Y198.23 E54.94888
G1 X167.03 Y198.27 E54.97636
G1 X167.48 Y198.39 E55.00545
G1 X167.64 Y198.48 E55.01729
G1 X167.66 Y198.54 E55.02138
G1 X167.66 Y201.48 E55.20646
G1 X167.66 Y201.51 E55.20845
G1 X167.54 Y201.58 E55.21706
G1 X167.39 Y201.65 E55.22760
G1 X166.95 Y201.74 E55.25584
G1 X166.65 Y201.77 E55.27502
G1 X165.60 Y201.77 E55.34151
G1 X163.12 Y201.77 E55.49783
G1 X158.37 Y201.78 E55.79702
G1 X152.71 Y201.77 E56.15457
G1 X151.13 Y201.78 E56.25399
G1 X145.13 Y201.77 E56.63273
G1 X142.99 Y201.77 E56.76741
G1 X141.43 Y201.77 E56.86594
G1 X138.19 Y201.78 E57.07039
G1 X133.40 Y201.77 E57.37243
G1 X133.01 Y201.74 E57.39679
G1 X132.52 Y201.62 E57.42912
G1 X132.35 Y201.52 E57.44135
G1 X132.34 Y201.46 E57.44476
G1 X132.34 Y198.53 E57.63010
G1 X132.34 Y198.49 E57.63216
G1 X132.44 Y198.42 E57.63995
G1 X132.66 Y198.34 E57.65470
G1 X133.08 Y198.26 E57.68168
G1 X134.84 Y198.22 E57.79260
G1 X137.10 Y198.23 E57.93522
G1 X139.05 Y198.22 E58.05804
G1 X140.57 Y198.23 E58.15424
G1 X141.99 Y198.23 E58.24363
G1 X147.48 Y198.22 E58.59001
G1 X147.82 Y198.17 E58.61163
G1 X147.94 Y198.11 E58.62021
G1 X147.98 Y198.08 E58.62292
G1 X148.08 Y197.98 E58.63216
G1 X148.15 Y197.85 E58.64167
G1 X148.21 Y197.64 E58.65536
G1 X148.23 Y197.46 E58.66681
G1 X148.23 Y195.70 E58.77758
G1 X148.23 Y194.18 E58.87378
G1 X148.22 Y191.00 E59.07438
G1 X148.23 Y187.77 E59.27801
G1 X148.23 Y113.50 E63.96321
G1 X148.22 Y113.28 E63.97723
G1 X148.10 Y112.87 E64.00354
G1 X148.04 Y112.71 E64.01457
G1 X147.93 Y112.53 E64.02787
G1 X147.61 Y112.17 E64.05811
G1 X147.29 Y111.96 E64.08253
G1 X147.08 Y111.87 E64.09664
G1 X146.70 Y111.78 E64.12156
G1 X146.50 Y111.77 E64.13382
G1 X145.26 Y111.78 E64.21198
G1 X143.75 Y111.77 E64.30767
G1 X142.71 Y111.77 E64.37296
G1 X140.88 Y111.77 E64.48821
G1 X138.71 Y111.77 E64.62548
G1 X137.97 Y111.76 E64.67179
G1 X137.87 Y111.70 E64.67967
G1 X137.82 Y111.65 E64.68404
G1 X137.79 Y111.59 E64.68867
G1 X137.77 Y108.52 E64.88239
G1 X137.79 Y108.41 E64.88896
G1 X137.79 Y108.39 E64.89049
G1 X137.83 Y108.33 E64.89501
G1 X137.89 Y108.28 E64.89965
G1 X137.97 Y108.25 E64.90493
G1 X138.06 Y108.23 E64.91108
G1 X139.41 Y108.22 E64.99586
G1 X140.85 Y108.23 E65.08727
G1 X141.70 Y108.23 E65.14057
G1 X143.69 Y108.23 E65.26611
G1 X145.82 Y108.23 E65.40041
G1 X146.51 Y108.23 E65.44375
G1 X146.71 Y108.22 E65.45663
G1 X147.06 Y108.14 E65.47944
