;Generated with Cura_SteamEngine 13.12
M109 T0 S220.000000
T0

;
; *** G-code Prefix ***
; For cura, it already sets the temp beforehand
; so no need to set temperature here
M92 E288 ; Set extusion to 100mm
M205 X10 ; set jerk speed to 10
G90 ; use absolute coordinates
M82 ; absolute extrusion distances
G21 ; set units to millimeters
M106 S0 ; fan speed 0
; M104 S220 ; Set tempterature 190, don't wait
M301 P24.72 I0.88 D231.1  ; set pid, looks like new code is correct.
G28  ;  home X Y Z
G0 Z20 ;  put bed down a little
G0 X120 Y115 Z2 F7500 ; go to 120, 115, 2.
G92 E0 ; clear E
G1 Y1 Z2 F7500 ;
; M109 S220  ; set temp 190 and wait
G1 F100 E30
G1 F100 Z15 E32
G1 F100 E31
G1 X100 Z0 E30 F7500
G1 X90 Z0 E30 F7500
G1 X90 Z0.3 E32 F7500
G92 E0  ; clear E

;Layer count: 33
;LAYER:0
M107
G0 F9000 X125.58 Y123.34 Z0.30
;TYPE:SKIRT
G1 F4800 E0.00000
G1 F1500 X126.16 Y122.80 E0.05043
G1 X126.64 Y122.40 E0.08963
G1 X127.60 Y121.70 E0.16489
G1 X128.17 Y121.35 E0.20714
G1 X129.00 Y120.90 E0.26649
G1 X129.61 Y120.63 E0.30833
G1 X130.79 Y120.19 E0.38775
G1 X131.42 Y120.01 E0.42961
G1 X132.22 Y119.83 E0.48096
G1 X132.63 Y119.76 E0.50723
G1 X133.42 Y119.66 E0.55763
G1 X134.05 Y119.61 E0.59765
G1 X141.92 Y119.60 E1.09391
G1 X143.72 Y119.93 E1.20910
G1 X150.56 Y122.60 E1.67259
G1 X153.73 Y122.60 E1.87244
G1 X157.35 Y125.85 E2.17893
G1 X157.58 Y124.92 E2.23915
G1 X164.43 Y120.79 E2.74362
G1 X180.12 Y124.55 E3.76155
G1 X184.34 Y131.44 E4.27109
G1 X173.48 Y176.68 E7.20578
G1 X166.59 Y180.90 E7.71546
G1 X128.47 Y171.72 E10.18899
G1 X127.77 Y171.50 E10.23543
G1 X125.96 Y170.76 E10.35873
G1 X125.29 Y170.43 E10.40573
G1 X123.93 Y169.61 E10.50620
G1 X123.43 Y169.27 E10.54414
G1 X122.29 Y168.38 E10.63514
G1 X121.86 Y168.00 E10.67165
G1 X120.84 Y166.99 E10.76212
G1 X120.45 Y166.55 E10.79902
G1 X119.56 Y165.41 E10.89036
G1 X119.21 Y164.91 E10.92870
G1 X118.42 Y163.61 E11.02507
G1 X118.14 Y163.07 E11.06308
G1 X117.55 Y161.76 E11.15417
G1 X117.34 Y161.21 E11.19079
G1 X116.92 Y159.85 E11.28091
G1 X116.78 Y159.29 E11.31717
G1 X116.52 Y157.89 E11.40699
G1 X116.45 Y157.33 E11.44273
G1 X116.37 Y156.13 E11.51828
G1 X116.36 Y155.88 E11.53445
G1 X116.35 Y155.58 E11.55337
G1 X116.36 Y155.37 E11.56668
G1 X116.38 Y154.62 E11.61376
G1 X116.41 Y154.19 E11.64089
G1 X116.56 Y152.84 E11.72663
G1 X116.67 Y152.27 E11.76334
G1 X122.30 Y128.79 E13.28636
G1 X122.59 Y127.94 E13.34291
G1 X123.19 Y126.59 E13.43629
G1 X123.62 Y125.83 E13.49147
G1 X124.35 Y124.75 E13.57364
G1 X124.74 Y124.25 E13.61363
G1 X125.28 Y123.65 E13.66434
G1 X125.58 Y123.34 E13.69133
G0 F9000 X125.93 Y123.70
G1 F1500 X126.49 Y123.17 E13.74006
G1 X126.94 Y122.80 E13.77725
G1 X127.88 Y122.12 E13.85038
G1 X128.42 Y121.78 E13.89048
G1 X129.22 Y121.35 E13.94769
G1 X129.79 Y121.10 E13.98736
G1 X130.94 Y120.67 E14.06464
G1 X131.55 Y120.49 E14.10440
G1 X132.32 Y120.32 E14.15395
G1 X132.71 Y120.26 E14.17892
G1 X133.47 Y120.15 E14.22760
G1 X134.07 Y120.11 E14.26560
G1 X141.88 Y120.10 E14.75783
G1 X143.58 Y120.42 E14.86712
G1 X150.47 Y123.10 E15.33358
G1 X153.54 Y123.10 E15.52724
G1 X157.63 Y126.77 E15.87381
G1 X158.02 Y125.24 E15.97313
G1 X164.51 Y121.32 E16.45183
G1 X179.80 Y124.99 E17.44374
G1 X183.81 Y131.53 E17.92715
G1 X173.04 Y176.36 E20.83569
G1 X166.51 Y180.36 E21.31923
G1 X128.61 Y171.24 E23.77840
G1 X127.94 Y171.03 E23.82255
G1 X126.17 Y170.30 E23.94339
G1 X125.53 Y169.99 E23.98797
G1 X124.20 Y169.19 E24.08628
G1 X123.73 Y168.86 E24.12226
G1 X122.61 Y167.99 E24.21137
G1 X122.20 Y167.63 E24.24605
G1 X121.21 Y166.64 E24.33468
G1 X120.84 Y166.23 E24.36957
G1 X119.96 Y165.12 E24.45904
G1 X119.63 Y164.64 E24.49544
G1 X118.85 Y163.36 E24.58977
G1 X118.59 Y162.85 E24.62589
G1 X118.01 Y161.56 E24.71509
G1 X117.82 Y161.05 E24.74975
G1 X117.40 Y159.71 E24.83802
G1 X117.27 Y159.19 E24.87240
G1 X117.01 Y157.81 E24.96043
G1 X116.95 Y157.28 E24.99438
G1 X116.87 Y156.10 E25.06861
G1 X116.86 Y155.86 E25.08395
G1 X116.85 Y155.57 E25.10212
G1 X116.86 Y155.38 E25.11467
G1 X116.88 Y154.65 E25.16074
G1 X116.90 Y154.24 E25.18648
G1 X117.06 Y152.91 E25.27063
G1 X117.16 Y152.37 E25.30541
G1 X122.78 Y128.93 E26.82610
G1 X123.05 Y128.13 E26.87967
G1 X123.64 Y126.81 E26.97020
G1 X124.04 Y126.09 E27.02259
G1 X124.76 Y125.05 E27.10230
G1 X125.13 Y124.57 E27.14022
G1 X125.64 Y123.99 E27.18923
G1 X125.93 Y123.70 E27.21484
G0 F9000 X126.28 Y124.06
G1 F1500 X126.82 Y123.55 E27.26188
G1 X127.25 Y123.19 E27.29709
G1 X128.16 Y122.53 E27.36815
G1 X128.67 Y122.21 E27.40601
G1 X129.44 Y121.80 E27.46106
G1 X129.99 Y121.56 E27.49865
G1 X131.10 Y121.15 E27.57377
G1 X131.67 Y120.98 E27.61138
G1 X132.41 Y120.81 E27.65919
G1 X132.78 Y120.75 E27.68277
G1 X133.52 Y120.65 E27.72979
G1 X134.09 Y120.61 E27.76570
G1 X141.83 Y120.60 E28.25396
G1 X143.44 Y120.90 E28.35734
G1 X150.37 Y123.60 E28.82672
G1 X153.35 Y123.60 E29.01433
G1 X157.91 Y127.69 E29.40082
G1 X158.45 Y125.57 E29.53929
G1 X164.60 Y121.86 E29.99208
G1 X179.49 Y125.43 E30.95797
G1 X183.27 Y131.61 E31.41519
G1 X172.61 Y176.04 E34.29758
G1 X166.42 Y179.83 E34.75499
G1 X128.74 Y170.76 E37.19997
G1 X128.11 Y170.56 E37.24166
G1 X126.37 Y169.85 E37.36013
G1 X125.77 Y169.55 E37.40236
G1 X124.47 Y168.77 E37.49847
G1 X124.02 Y168.46 E37.53248
G1 X122.93 Y167.61 E37.61967
G1 X122.54 Y167.27 E37.65248
G1 X121.57 Y166.30 E37.73919
G1 X121.22 Y165.91 E37.77225
G1 X120.36 Y164.82 E37.85983
G1 X120.05 Y164.37 E37.89419
G1 X119.29 Y163.12 E37.98660
G1 X119.04 Y162.64 E38.02072
G1 X118.47 Y161.37 E38.10800
G1 X118.29 Y160.89 E38.14084
G1 X117.88 Y159.58 E38.22725
G1 X117.76 Y159.08 E38.25975
G1 X117.51 Y157.74 E38.34592
G1 X117.44 Y157.23 E38.37809
G1 X117.37 Y156.08 E38.45092
G1 X117.36 Y155.85 E38.46538
G1 X117.35 Y155.57 E38.48286
G1 X117.35 Y155.38 E38.49472
G1 X117.37 Y154.67 E38.53978
G1 X117.40 Y154.29 E38.56413
G1 X117.55 Y152.99 E38.64663
G1 X117.65 Y152.47 E38.67957
G1 X123.26 Y129.07 E40.19784
G1 X123.52 Y128.31 E40.24855
G1 X124.09 Y127.04 E40.33618
G1 X124.47 Y126.35 E40.38574
G1 X125.16 Y125.34 E40.46304
G1 X125.51 Y124.89 E40.49881
G1 X126.01 Y124.33 E40.54613
G1 X126.28 Y124.06 E40.57035
G0 F9000 X126.63 Y124.42
G1 F1500 X127.15 Y123.92 E40.61574
G1 X127.56 Y123.59 E40.64894
G1 X128.44 Y122.94 E40.71791
G1 X128.92 Y122.65 E40.75358
G1 X129.66 Y122.25 E40.80650
G1 X130.17 Y122.02 E40.84194
G1 X131.26 Y121.62 E40.91490
G1 X131.80 Y121.46 E40.95035
G1 X132.51 Y121.30 E40.99648
G1 X132.86 Y121.24 E41.01870
G1 X133.57 Y121.15 E41.06401
G1 X134.11 Y121.11 E41.09783
G1 X141.78 Y121.10 E41.58211
G1 X143.30 Y121.38 E41.67966
G1 X150.28 Y124.10 E42.15196
G1 X153.16 Y124.10 E42.33344
G1 X157.86 Y128.32 E42.73187
G1 X157.98 Y129.44 E42.80287
G1 X158.88 Y125.89 E43.03396
G1 X164.68 Y122.39 E43.46084
G1 X179.17 Y125.87 E44.40071
G1 X182.74 Y131.70 E44.83191
G1 X172.17 Y175.72 E47.68816
G1 X166.34 Y179.29 E48.11945
G1 X128.88 Y170.28 E50.55014
G1 X128.28 Y170.09 E50.58951
G1 X126.58 Y169.39 E50.70554
G1 X126.02 Y169.11 E50.74529
G1 X124.74 Y168.35 E50.83923
G1 X124.32 Y168.06 E50.87130
G1 X123.25 Y167.22 E50.95660
G1 X122.89 Y166.90 E50.98758
G1 X121.93 Y165.95 E51.07237
G1 X121.60 Y165.58 E51.10351
G1 X120.76 Y164.52 E51.18911
G1 X120.47 Y164.10 E51.22160
G1 X119.72 Y162.87 E51.31209
G1 X119.49 Y162.42 E51.34420
G1 X118.94 Y161.18 E51.42956
G1 X118.76 Y160.72 E51.46056
G1 X118.36 Y159.44 E51.54512
G1 X118.25 Y158.97 E51.57573
G1 X118.00 Y157.66 E51.66004
G1 X117.94 Y157.18 E51.69037
G1 X117.87 Y156.05 E51.76194
G1 X117.86 Y155.83 E51.77558
G1 X117.85 Y155.57 E51.79223
G1 X117.85 Y155.39 E51.80346
G1 X117.87 Y154.69 E51.84745
G1 X117.90 Y154.33 E51.87040
G1 X118.05 Y153.06 E51.95125
G1 X118.14 Y152.57 E51.98226
G1 X123.74 Y129.21 E53.49815
G1 X123.99 Y128.49 E53.54597
G1 X124.53 Y127.26 E53.63077
G1 X124.90 Y126.61 E53.67754
G1 X125.56 Y125.64 E53.75235
G1 X125.89 Y125.21 E53.78614
G1 X126.37 Y124.67 E53.83172
G1 X126.63 Y124.42 E53.85451
G0 F9000 X126.98 Y124.77
G1 F1500 X127.48 Y124.30 E53.89816
G1 X127.86 Y123.98 E53.92939
G1 X128.72 Y123.36 E53.99624
G1 X129.17 Y123.08 E54.02976
G1 X129.88 Y122.70 E54.08047
G1 X130.36 Y122.49 E54.11377
G1 X131.42 Y122.10 E54.18458
G1 X131.92 Y121.95 E54.21791
G1 X132.61 Y121.80 E54.26222
G1 X132.93 Y121.74 E54.28306
G1 X133.62 Y121.65 E54.32665
G1 X134.12 Y121.61 E54.35851
G1 X141.74 Y121.60 E54.83882
G1 X143.16 Y121.86 E54.93040
G1 X150.19 Y124.60 E55.40573
G1 X152.96 Y124.60 E55.58104
G1 X157.38 Y128.56 E55.95525
G1 X157.73 Y131.79 E56.16040
G1 X157.75 Y131.84 E56.16319
G1 X157.75 Y131.85 E56.16404
G1 X157.76 Y131.85 E56.16450
G1 X157.77 Y131.87 E56.16539
G1 X157.78 Y131.87 E56.16620
G1 X157.79 Y131.88 E56.16753
G1 X157.81 Y131.89 E56.16821
G1 X157.82 Y131.89 E56.16917
G1 X157.84 Y131.89 E56.17013
G1 X157.87 Y131.88 E56.17221
G1 X157.88 Y131.88 E56.17280
G1 X159.32 Y126.21 E56.54169
G1 X164.76 Y122.93 E56.94275
G1 X178.85 Y126.31 E57.85662
G1 X182.20 Y131.78 E58.26163
G1 X171.73 Y175.41 E61.09174
G1 X166.26 Y178.76 E61.49690
G1 X129.01 Y169.80 E63.91333
G1 X128.45 Y169.62 E63.95032
G1 X126.79 Y168.94 E64.06400
G1 X126.26 Y168.67 E64.10133
G1 X125.01 Y167.92 E64.19311
G1 X124.61 Y167.65 E64.22322
G1 X123.57 Y166.84 E64.30659
G1 X123.23 Y166.54 E64.33569
G1 X122.29 Y165.61 E64.41866
G1 X121.99 Y165.26 E64.44792
G1 X121.16 Y164.22 E64.53154
G1 X120.89 Y163.82 E64.56209
G1 X120.16 Y162.62 E64.65060
G1 X119.94 Y162.20 E64.68088
G1 X119.40 Y160.99 E64.76429
G1 X119.24 Y160.56 E64.79328
G1 X118.85 Y159.31 E64.87598
G1 X118.74 Y158.87 E64.90477
G1 X118.50 Y157.58 E64.98722
G1 X118.44 Y157.13 E65.01570
G1 X118.37 Y156.02 E65.08588
G1 X118.36 Y155.82 E65.09876
G1 X118.35 Y155.57 E65.11466
G1 X118.35 Y155.40 E65.12520
G1 X118.37 Y154.72 E65.16817
G1 X118.40 Y154.38 E65.18974
G1 X118.54 Y153.13 E65.26893
G1 X118.63 Y152.68 E65.29816
G1 X124.22 Y129.35 E66.81164
G1 X124.45 Y128.67 E66.85655
G1 X124.98 Y127.49 E66.93844
G1 X125.32 Y126.88 E66.98233
G1 X125.97 Y125.93 E67.05469
G1 X126.28 Y125.53 E67.08647
G1 X126.74 Y125.02 E67.13034
G1 X126.98 Y124.77 E67.15180
G0 F9000 X127.33 Y125.13
G1 F1500 X127.81 Y124.67 E67.19379
G1 X128.17 Y124.38 E67.22292
G1 X129.00 Y123.78 E67.28774
G1 X129.42 Y123.51 E67.31916
G1 X130.10 Y123.15 E67.36773
G1 X130.55 Y122.95 E67.39882
G1 X131.57 Y122.57 E67.46747
G1 X132.05 Y122.43 E67.49863
G1 X132.71 Y122.29 E67.54127
G1 X133.01 Y122.23 E67.56075
G1 X133.67 Y122.14 E67.60263
G1 X134.14 Y122.11 E67.63247
G1 X141.69 Y122.10 E68.10880
G1 X143.03 Y122.35 E68.19441
G1 X150.09 Y125.10 E68.67267
G1 X152.77 Y125.10 E68.84191
G1 X156.90 Y128.81 E69.19200
G1 X157.24 Y131.90 E69.38846
G1 X157.29 Y132.04 E69.39722
G1 X157.32 Y132.11 E69.40244
G1 X157.38 Y132.18 E69.40806
G1 X157.43 Y132.24 E69.41296
G1 X157.49 Y132.28 E69.41767
G1 X157.56 Y132.33 E69.42300
G1 X157.59 Y132.34 E69.42523
G1 X157.67 Y132.37 E69.43057
G1 X157.80 Y132.40 E69.43878
G1 X157.94 Y132.38 E69.44756
G1 X158.02 Y132.36 E69.45290
G1 X158.08 Y132.34 E69.45693
G1 X158.18 Y132.28 E69.46454
G1 X158.26 Y132.20 E69.47101
G1 X158.30 Y132.15 E69.47522
G1 X158.33 Y132.10 E69.47919
G1 X159.75 Y126.53 E69.84162
G1 X164.84 Y123.46 E70.21685
G1 X178.53 Y126.74 E71.10475
G1 X181.67 Y131.86 E71.48362
G1 X171.29 Y175.09 E74.28765
G1 X166.17 Y178.22 E74.66667
G1 X129.15 Y169.32 E77.06882
G1 X128.63 Y169.15 E77.10342
G1 X126.99 Y168.48 E77.21467
G1 X126.50 Y168.23 E77.24965
G1 X125.28 Y167.50 E77.33922
G1 X124.91 Y167.25 E77.36740
G1 X123.89 Y166.46 E77.44883
G1 X123.57 Y166.17 E77.47609
G1 X122.66 Y165.26 E77.55709
G1 X122.37 Y164.94 E77.58447
G1 X121.56 Y163.92 E77.66625
G1 X121.31 Y163.55 E77.69478
G1 X120.60 Y162.38 E77.78130
G1 X120.39 Y161.98 E77.80963
G1 X119.86 Y160.80 E77.89112
G1 X119.71 Y160.40 E77.91835
G1 X119.33 Y159.18 E77.99916
G1 X119.22 Y158.76 E78.02605
G1 X118.99 Y157.50 E78.10671
G1 X118.94 Y157.09 E78.13328
G1 X118.86 Y156.00 E78.20220
G1 X118.86 Y155.81 E78.21419
G1 X118.85 Y155.57 E78.22934
G1 X118.85 Y155.41 E78.23924
G1 X118.87 Y154.75 E78.28114
G1 X118.90 Y154.43 E78.30132
G1 X119.04 Y153.21 E78.37887
G1 X119.11 Y152.78 E78.40615
G1 X124.70 Y129.49 E79.91730
G1 X124.92 Y128.85 E79.95929
G1 X125.43 Y127.71 E80.03836
G1 X125.75 Y127.14 E80.07939
G1 X126.37 Y126.23 E80.14934
G1 X126.66 Y125.85 E80.17910
G1 X127.11 Y125.36 E80.22123
G1 X127.33 Y125.13 E80.24126
G0 F9000 X127.68 Y125.49
G1 F1500 X128.14 Y125.05 E80.28151
G1 X128.47 Y124.77 E80.30861
G1 X129.28 Y124.19 E80.37135
G1 X129.67 Y123.94 E80.40062
G1 X130.32 Y123.60 E80.44704
G1 X130.74 Y123.41 E80.47599
G1 X131.73 Y123.05 E80.54249
G1 X132.17 Y122.92 E80.57155
G1 X132.80 Y122.78 E80.61239
G1 X133.09 Y122.73 E80.63058
G1 X133.72 Y122.64 E80.67072
G1 X134.16 Y122.61 E80.69848
G1 X141.65 Y122.60 E81.17084
G1 X142.89 Y122.83 E81.25055
G1 X150.00 Y125.60 E81.73178
G1 X152.58 Y125.60 E81.89485
G1 X156.43 Y129.05 E82.22081
G1 X156.75 Y132.01 E82.40857
G1 X156.82 Y132.24 E82.42359
G1 X156.90 Y132.37 E82.43291
G1 X156.99 Y132.50 E82.44343
G1 X157.10 Y132.61 E82.45324
G1 X157.20 Y132.69 E82.46132
G1 X157.31 Y132.76 E82.46976
G1 X157.41 Y132.81 E82.47627
G1 X157.53 Y132.85 E82.48453
G1 X157.74 Y132.90 E82.49809
G1 X157.79 Y132.90 E82.50113
G1 X157.82 Y132.90 E82.50290
G1 X158.03 Y132.87 E82.51639
G1 X158.17 Y132.84 E82.52563
G1 X158.30 Y132.79 E82.53413
G1 X158.49 Y132.68 E82.54787
G1 X158.62 Y132.54 E82.56001
G1 X158.70 Y132.45 E82.56763
G1 X158.79 Y132.32 E82.57734
G1 X158.80 Y132.29 E82.57988
G1 X160.19 Y126.85 E82.93353
G1 X164.93 Y123.99 E83.28281
G1 X178.21 Y127.18 E84.14472
G1 X181.13 Y131.95 E84.49757
G1 X170.86 Y174.77 E87.27538
G1 X166.09 Y177.69 E87.62830
G1 X129.28 Y168.83 E90.01618
G1 X128.80 Y168.68 E90.04840
G1 X127.20 Y168.03 E90.15727
G1 X126.74 Y167.79 E90.18985
G1 X125.55 Y167.08 E90.27728
G1 X125.21 Y166.85 E90.30354
G1 X124.21 Y166.07 E90.38309
G1 X123.91 Y165.81 E90.40834
G1 X123.02 Y164.92 E90.48756
G1 X122.75 Y164.62 E90.51303
G1 X121.97 Y163.63 E90.59287
G1 X121.73 Y163.28 E90.61940
G1 X121.03 Y162.13 E90.70400
G1 X120.84 Y161.76 E90.73036
G1 X120.32 Y160.61 E90.80996
G1 X120.18 Y160.24 E90.83525
G1 X119.81 Y159.04 E90.91414
G1 X119.71 Y158.66 E90.93928
G1 X119.49 Y157.43 E91.01807
G1 X119.44 Y157.04 E91.04287
G1 X119.36 Y155.97 E91.11040
G1 X119.36 Y155.79 E91.12157
G1 X119.35 Y155.56 E91.13595
G1 X119.35 Y155.42 E91.14516
G1 X119.37 Y154.77 E91.18606
G1 X119.39 Y154.47 E91.20484
G1 X119.53 Y153.28 E91.28080
G1 X119.60 Y152.88 E91.30616
G1 X125.19 Y129.63 E92.81485
G1 X125.39 Y129.04 E92.85403
G1 X125.88 Y127.93 E92.93022
G1 X126.17 Y127.41 E92.96843
G1 X126.78 Y126.52 E93.03598
G1 X127.05 Y126.18 E93.06362
G1 X127.47 Y125.70 E93.10401
G1 X127.68 Y125.49 E93.12270
G0 F9000 X128.03 Y125.84
G1 F1500 X128.47 Y125.42 E93.16130
G1 X128.78 Y125.17 E93.18643
G1 X129.56 Y124.61 E93.24701
G1 X129.92 Y124.38 E93.27411
G1 X130.54 Y124.05 E93.31836
G1 X130.93 Y123.87 E93.34518
G1 X131.89 Y123.52 E93.40953
G1 X132.30 Y123.40 E93.43643
G1 X132.90 Y123.27 E93.47551
G1 X133.16 Y123.22 E93.49236
G1 X133.77 Y123.14 E93.53086
G1 X134.18 Y123.11 E93.55653
G1 X141.60 Y123.10 E94.02491
G1 X142.75 Y123.31 E94.09872
G1 X149.90 Y126.10 E94.58287
G1 X152.39 Y126.10 E94.73988
G1 X155.95 Y129.30 E95.04172
G1 X156.26 Y132.10 E95.21971
G1 X156.26 Y132.11 E95.22041
G1 X156.26 Y132.13 E95.22159
G1 X156.36 Y132.43 E95.24150
G1 X156.47 Y132.63 E95.25603
G1 X156.60 Y132.82 E95.27080
G1 X156.77 Y132.99 E95.28543
G1 X156.90 Y133.10 E95.29616
G1 X157.09 Y133.21 E95.31010
G1 X157.21 Y133.27 E95.31865
G1 X157.40 Y133.33 E95.33106
G1 X157.66 Y133.39 E95.34803
G1 X157.78 Y133.40 E95.35562
G1 X157.81 Y133.40 E95.35726
G1 X157.87 Y133.40 E95.36092
G1 X158.13 Y133.36 E95.37786
