;Generated with Cura_SteamEngine 13.12
M109 T0 S220.000000
T0

;
; *** G-code Prefix ***
; For cura, it already sets the temp beforehand
; so no need to set temperature here
M92 E274 ; Set extusion to 100mm
M205 X10 ; set jerk speed to 10
G90 ; use absolute coordinates
M82 ; absolute extrusion distances
G21 ; set units to millimeters
M106 S0 ; fan speed 0
; M104 S220 ; Set tempterature 190, don't wait
M301 P24.72 I0.88 D231.1  ; set pid, looks like new code is correct.
G28  ;  home X Y Z
G0 Z20 ;  put bed down a little
G0 X120 Y115 Z2 F7500 ; go to 120, 115, 2.
G92 E0 ; clear E
G1 Y1 Z2 F7500 ;
; M109 S220  ; set temp 190 and wait
G1 F100 E30
G1 F100 Z15 E32
G1 F100 E31
G1 X100 Z0 E30 F7500
G1 X90 Z0 E30 F7500
G1 X90 Z0.3 E32 F7500
G92 E0  ; clear E

;Layer count: 69
;LAYER:0
M107
G0 F7200 X124.22 Y133.68 Z0.30
;TYPE:SKIRT
G1 F4800 E0.00000
G1 F1200 X125.51 Y132.56 E0.13652
G1 X126.00 Y132.16 E0.18718
G1 X127.04 Y131.43 E0.28822
G1 X127.56 Y131.10 E0.33730
G1 X128.98 Y130.30 E0.46819
G1 X129.65 Y129.97 E0.52773
G1 X131.17 Y129.34 E0.65887
G1 X131.75 Y129.13 E0.70810
G1 X133.01 Y128.75 E0.81368
G1 X133.74 Y128.57 E0.87320
G1 X135.71 Y128.23 E1.03294
G1 X136.44 Y128.14 E1.09178
G1 X137.72 Y128.07 E1.19424
G1 X138.23 Y128.07 E1.23497
G1 X139.44 Y128.10 E1.33124
G1 X140.06 Y128.15 E1.38075
G1 X141.69 Y128.36 E1.51217
G1 X142.43 Y128.50 E1.57217
G1 X144.02 Y128.91 E1.70340
G1 X144.60 Y129.09 E1.75230
G1 X145.58 Y129.44 E1.83524
G1 X146.22 Y128.74 E1.91151
G1 X146.64 Y128.32 E1.95872
G1 X147.86 Y127.21 E2.09022
G1 X148.42 Y126.76 E2.14804
G1 X149.82 Y125.77 E2.28471
G1 X150.43 Y125.38 E2.34234
G1 X151.98 Y124.53 E2.48349
G1 X152.73 Y124.18 E2.55023
G1 X154.69 Y123.43 E2.71776
G1 X155.38 Y123.21 E2.77542
G1 X156.71 Y122.87 E2.88498
G1 X157.40 Y122.73 E2.94121
G1 X159.38 Y122.46 E3.10088
G1 X160.08 Y122.41 E3.15673
G1 X161.40 Y122.38 E3.26193
G1 X162.01 Y122.39 E3.31131
G1 X163.63 Y122.52 E3.44099
G1 X164.24 Y122.60 E3.49003
G1 X165.48 Y122.82 E3.59078
G1 X166.06 Y122.95 E3.63787
G1 X167.70 Y123.41 E3.77386
G1 X168.49 Y123.69 E3.84090
G1 X170.52 Y124.57 E4.01796
G1 X171.37 Y125.02 E4.09470
G1 X173.24 Y126.20 E4.27130
G1 X173.91 Y126.69 E4.33738
G1 X175.27 Y127.82 E4.47865
G1 X175.79 Y128.32 E4.53683
G1 X176.97 Y129.57 E4.67339
G1 X177.43 Y130.12 E4.73047
G1 X178.44 Y131.49 E4.86661
G1 X178.84 Y132.09 E4.92389
G1 X179.66 Y133.52 E5.05569
G1 X179.94 Y134.06 E5.10405
G1 X180.43 Y135.15 E5.19966
G1 X180.60 Y135.58 E5.23699
G1 X181.03 Y136.76 E5.33716
G1 X181.24 Y137.45 E5.39500
G1 X181.71 Y139.43 E5.55713
G1 X181.83 Y140.12 E5.61325
G1 X181.99 Y141.46 E5.72085
G1 X182.03 Y142.17 E5.77789
G1 X182.06 Y157.03 E6.96431
G1 X182.04 Y157.53 E7.00451
G1 X181.88 Y159.50 E7.16202
G1 X181.76 Y160.32 E7.22814
G1 X181.40 Y161.98 E7.36414
G1 X181.24 Y162.56 E7.41203
G1 X180.85 Y163.76 E7.51285
G1 X180.64 Y164.33 E7.56122
G1 X179.99 Y165.84 E7.69259
G1 X179.67 Y166.47 E7.74931
G1 X178.81 Y167.95 E7.88545
G1 X178.42 Y168.55 E7.94304
G1 X177.43 Y169.87 E8.07469
G1 X177.05 Y170.33 E8.12257
G1 X176.20 Y171.26 E8.22280
G1 X175.79 Y171.68 E8.27001
G1 X174.56 Y172.79 E8.40169
G1 X174.00 Y173.24 E8.45990
G1 X172.60 Y174.24 E8.59636
G1 X172.00 Y174.61 E8.65309
G1 X170.51 Y175.43 E8.78920
G1 X169.86 Y175.75 E8.84685
G1 X168.33 Y176.37 E8.97853
G1 X167.77 Y176.57 E9.02642
G1 X166.56 Y176.93 E9.12691
G1 X165.98 Y177.07 E9.17469
G1 X164.42 Y177.37 E9.30138
G1 X163.83 Y177.46 E9.34907
G1 X162.65 Y177.57 E9.44373
G1 X162.19 Y177.60 E9.48022
G1 X161.08 Y177.62 E9.56936
G1 X160.58 Y177.61 E9.60922
G1 X159.35 Y177.54 E9.70730
G1 X158.76 Y177.47 E9.75535
G1 X157.13 Y177.22 E9.88696
G1 X156.43 Y177.07 E9.94417
G1 X154.73 Y176.59 E10.08521
G1 X153.94 Y176.31 E10.15224
G1 X151.90 Y175.43 E10.32931
G1 X151.05 Y174.98 E10.40604
G1 X149.18 Y173.80 E10.58265
G1 X148.51 Y173.31 E10.64873
G1 X147.16 Y172.18 E10.79000
G1 X146.63 Y171.67 E10.84818
G1 X145.55 Y170.52 E10.97457
G1 X145.24 Y170.17 E11.01141
G1 X144.73 Y169.54 E11.07598
G1 X144.44 Y169.14 E11.11588
G1 X143.60 Y167.93 E11.23343
G1 X143.28 Y168.02 E11.26023
G1 X142.67 Y168.16 E11.31070
G1 X140.73 Y168.50 E11.46765
G1 X140.00 Y168.58 E11.52665
G1 X138.74 Y168.65 E11.62702
G1 X138.25 Y168.66 E11.66631
G1 X137.05 Y168.62 E11.76242
G1 X136.41 Y168.57 E11.81312
G1 X134.72 Y168.35 E11.94979
G1 X133.87 Y168.18 E12.01899
G1 X131.79 Y167.61 E12.19067
G1 X130.97 Y167.32 E12.26056
G1 X129.35 Y166.61 E12.40180
G1 X128.69 Y166.27 E12.46105
G1 X127.17 Y165.38 E12.60210
G1 X126.45 Y164.88 E12.67148
G1 X124.77 Y163.54 E12.84328
G1 X124.12 Y162.95 E12.91314
G1 X122.86 Y161.62 E13.05946
G1 X122.32 Y160.95 E13.12881
G1 X121.08 Y159.20 E13.30011
G1 X120.63 Y158.46 E13.36917
G1 X119.83 Y156.90 E13.50897
G1 X119.52 Y156.22 E13.56854
G1 X118.97 Y154.72 E13.69586
G1 X118.82 Y154.26 E13.73516
G1 X118.58 Y153.41 E13.80570
G1 X118.44 Y152.79 E13.85616
G1 X118.10 Y150.85 E14.01311
G1 X118.01 Y150.12 E14.07211
G1 X117.95 Y148.86 E14.17288
G1 X117.94 Y148.36 E14.21289
G1 X117.97 Y147.16 E14.30877
G1 X118.02 Y146.54 E14.35828
G1 X118.24 Y144.91 E14.48977
G1 X118.38 Y144.17 E14.54993
G1 X118.78 Y142.58 E14.68093
G1 X118.96 Y142.00 E14.72943
G1 X119.39 Y140.81 E14.83028
G1 X119.64 Y140.23 E14.88105
G1 X120.36 Y138.74 E15.01278
G1 X120.73 Y138.10 E15.07210
G1 X121.68 Y136.61 E15.21312
G1 X122.20 Y135.92 E15.28237
G1 X123.61 Y134.29 E15.45382
G1 X124.22 Y133.68 E15.52299
G0 F7200 X124.65 Y134.14
G1 F1200 X125.91 Y133.04 E15.65646
G1 X126.38 Y132.67 E15.70463
G1 X127.39 Y131.96 E15.80307
G1 X127.88 Y131.65 E15.84953
G1 X129.28 Y130.86 E15.97767
G1 X129.91 Y130.55 E16.03421
G1 X131.40 Y129.93 E16.16249
G1 X131.95 Y129.73 E16.20924
G1 X133.18 Y129.36 E16.31207
G1 X133.87 Y129.19 E16.36846
G1 X135.80 Y128.85 E16.52520
G1 X136.49 Y128.77 E16.58099
G1 X137.74 Y128.71 E16.68081
G1 X138.23 Y128.70 E16.71954
G1 X139.40 Y128.73 E16.81350
G1 X139.99 Y128.78 E16.86044
G1 X141.59 Y128.99 E16.98903
G1 X142.29 Y129.12 E17.04603
G1 X143.85 Y129.52 E17.17445
G1 X144.40 Y129.69 E17.22085
G1 X145.55 Y130.11 E17.31895
G1 X145.76 Y130.20 E17.33681
G1 X145.86 Y130.08 E17.34890
G1 X146.68 Y129.18 E17.44659
G1 X147.08 Y128.78 E17.49137
G1 X148.27 Y127.70 E17.62011
G1 X148.81 Y127.27 E17.67503
G1 X150.17 Y126.29 E17.80873
G1 X150.75 Y125.93 E17.86339
G1 X152.26 Y125.10 E18.00128
G1 X152.98 Y124.76 E18.06467
G1 X154.90 Y124.02 E18.22894
G1 X155.55 Y123.82 E18.28370
G1 X156.85 Y123.49 E18.39027
G1 X157.50 Y123.36 E18.44364
G1 X159.45 Y123.09 E18.60050
G1 X160.11 Y123.04 E18.65346
G1 X161.39 Y123.01 E18.75595
G1 X161.98 Y123.03 E18.80284
G1 X163.57 Y123.15 E18.93004
G1 X164.15 Y123.22 E18.97650
G1 X165.36 Y123.44 E19.07475
G1 X165.90 Y123.56 E19.11947
G1 X167.51 Y124.01 E19.25256
G1 X168.26 Y124.28 E19.31604
G1 X170.25 Y125.14 E19.48945
G1 X171.06 Y125.57 E19.56233
G1 X172.89 Y126.72 E19.73524
G1 X173.52 Y127.19 E19.79800
G1 X174.84 Y128.30 E19.93597
G1 X175.35 Y128.77 E19.99122
G1 X176.49 Y129.99 E20.12483
G1 X176.93 Y130.51 E20.17898
G1 X177.92 Y131.85 E20.31220
G1 X178.30 Y132.42 E20.36654
G1 X179.10 Y133.82 E20.49562
G1 X179.36 Y134.33 E20.54148
G1 X179.85 Y135.40 E20.63491
G1 X180.01 Y135.81 E20.67037
G1 X180.43 Y136.96 E20.76809
G1 X180.63 Y137.62 E20.82292
G1 X181.09 Y139.56 E20.98217
G1 X181.20 Y140.21 E21.03535
G1 X181.35 Y141.51 E21.14006
G1 X181.40 Y142.19 E21.19422
G1 X181.42 Y157.02 E22.37809
G1 X181.41 Y157.49 E22.41621
G1 X181.25 Y159.43 E22.57100
G1 X181.13 Y160.20 E22.63381
G1 X180.78 Y161.83 E22.76686
G1 X180.63 Y162.38 E22.81232
G1 X180.26 Y163.55 E22.91064
G1 X180.05 Y164.09 E22.95649
G1 X179.41 Y165.57 E23.08518
G1 X179.11 Y166.17 E23.13900
G1 X178.27 Y167.61 E23.27222
G1 X177.90 Y168.18 E23.32675
G1 X176.93 Y169.48 E23.45571
G1 X176.57 Y169.92 E23.50121
G1 X175.75 Y170.82 E23.59902
G1 X175.35 Y171.22 E23.64380
G1 X174.15 Y172.31 E23.77276
G1 X173.61 Y172.74 E23.82802
G1 X172.25 Y173.71 E23.96145
G1 X171.68 Y174.07 E24.01531
G1 X170.22 Y174.87 E24.14849
G1 X169.60 Y175.17 E24.20318
G1 X168.11 Y175.78 E24.33217
G1 X167.57 Y175.96 E24.37754
G1 X166.40 Y176.31 E24.47555
G1 X165.84 Y176.45 E24.52095
G1 X164.32 Y176.75 E24.64520
G1 X163.75 Y176.83 E24.69053
G1 X162.60 Y176.94 E24.78304
G1 X162.17 Y176.97 E24.81752
G1 X161.08 Y176.99 E24.90475
G1 X160.60 Y176.98 E24.94261
G1 X159.41 Y176.91 E25.03845
G1 X158.84 Y176.85 E25.08392
G1 X157.25 Y176.60 E25.21279
G1 X156.58 Y176.45 E25.26714
G1 X154.92 Y175.99 E25.40505
G1 X154.17 Y175.72 E25.46852
G1 X152.18 Y174.86 E25.64194
G1 X151.37 Y174.43 E25.71481
G1 X149.54 Y173.28 E25.88772
G1 X148.90 Y172.81 E25.95048
G1 X147.58 Y171.70 E26.08845
G1 X147.08 Y171.23 E26.14370
G1 X146.01 Y170.10 E26.26765
G1 X145.73 Y169.77 E26.30263
G1 X145.23 Y169.16 E26.36521
G1 X144.95 Y168.78 E26.40300
G1 X144.07 Y167.48 E26.52804
G1 X143.89 Y167.19 E26.55538
G1 X143.13 Y167.41 E26.61894
G1 X142.54 Y167.54 E26.66685
G1 X140.64 Y167.87 E26.82096
G1 X139.94 Y167.95 E26.87699
G1 X138.72 Y168.02 E26.97480
G1 X138.25 Y168.02 E27.01202
G1 X137.08 Y167.99 E27.10589
G1 X136.48 Y167.94 E27.15403
G1 X134.82 Y167.73 E27.28756
G1 X134.01 Y167.57 E27.35316
G1 X131.99 Y167.00 E27.52127
G1 X131.20 Y166.73 E27.58753
G1 X129.62 Y166.04 E27.72544
G1 X128.99 Y165.72 E27.78172
G1 X127.51 Y164.84 E27.91947
G1 X126.83 Y164.38 E27.98533
G1 X125.18 Y163.06 E28.15356
G1 X124.57 Y162.50 E28.21991
G1 X123.34 Y161.20 E28.36256
G1 X122.82 Y160.57 E28.42833
G1 X121.61 Y158.85 E28.59614
G1 X121.18 Y158.15 E28.66176
G1 X120.40 Y156.63 E28.79823
G1 X120.11 Y155.98 E28.85469
G1 X119.57 Y154.52 E28.97947
G1 X119.42 Y154.07 E29.01677
G1 X119.19 Y153.25 E29.08498
G1 X119.06 Y152.67 E29.13289
G1 X118.72 Y150.76 E29.28701
G1 X118.65 Y150.07 E29.34303
G1 X118.58 Y148.84 E29.44124
G1 X118.58 Y148.37 E29.47918
G1 X118.61 Y147.19 E29.57273
G1 X118.65 Y146.61 E29.61968
G1 X118.86 Y145.01 E29.74835
G1 X119.00 Y144.31 E29.80544
G1 X119.39 Y142.75 E29.93370
G1 X119.56 Y142.20 E29.97968
G1 X119.98 Y141.05 E30.07793
G1 X120.22 Y140.49 E30.12614
G1 X120.92 Y139.04 E30.25504
G1 X121.27 Y138.42 E30.31139
G1 X122.20 Y136.97 E30.44909
G1 X122.70 Y136.32 E30.51476
G1 X124.07 Y134.72 E30.68263
G1 X124.65 Y134.14 E30.74825
G0 F7200 X125.08 Y134.60
G1 F1200 X126.31 Y133.53 E30.87866
G1 X126.76 Y133.18 E30.92411
G1 X127.74 Y132.49 E31.02003
G1 X128.21 Y132.19 E31.06401
G1 X129.57 Y131.42 E31.18935
G1 X130.18 Y131.12 E31.24282
G1 X131.63 Y130.52 E31.36826
G1 X132.15 Y130.33 E31.41254
G1 X133.35 Y129.97 E31.51254
G1 X134.00 Y129.81 E31.56598
G1 X135.89 Y129.48 E31.71972
G1 X136.55 Y129.41 E31.77244
G1 X137.76 Y129.34 E31.86970
G1 X138.22 Y129.33 E31.90628
G1 X139.37 Y129.36 E31.99791
G1 X139.92 Y129.41 E32.04237
G1 X141.49 Y129.61 E32.16816
G1 X142.15 Y129.74 E32.22207
G1 X143.67 Y130.13 E32.34770
G1 X144.20 Y130.29 E32.39148
G1 X145.32 Y130.70 E32.48710
G1 X145.84 Y130.92 E32.53230
G1 X145.95 Y130.97 E32.54155
G1 X145.99 Y130.91 E32.54782
G1 X146.34 Y130.49 E32.59060
G1 X147.14 Y129.61 E32.68580
G1 X147.51 Y129.24 E32.72815
G1 X148.68 Y128.18 E32.85423
G1 X149.19 Y127.77 E32.90614
G1 X150.52 Y126.82 E33.03686
G1 X151.07 Y126.47 E33.08858
G1 X152.55 Y125.66 E33.22325
G1 X153.23 Y125.35 E33.28324
G1 X155.11 Y124.62 E33.44435
G1 X155.73 Y124.43 E33.49613
G1 X156.99 Y124.10 E33.59984
G1 X157.61 Y123.98 E33.65030
G1 X159.52 Y123.72 E33.80425
G1 X160.14 Y123.67 E33.85440
G1 X161.39 Y123.64 E33.95417
G1 X161.95 Y123.66 E33.99851
G1 X163.50 Y123.78 E34.12315
G1 X164.05 Y123.85 E34.16711
G1 X165.23 Y124.06 E34.26292
G1 X165.75 Y124.18 E34.30519
G1 X167.32 Y124.62 E34.43539
G1 X168.03 Y124.87 E34.49542
G1 X169.97 Y125.71 E34.66511
G1 X170.74 Y126.11 E34.73406
G1 X172.53 Y127.25 E34.90331
G1 X173.13 Y127.69 E34.96270
G1 X174.42 Y128.77 E35.09750
G1 X174.90 Y129.22 E35.14970
G1 X176.02 Y130.41 E35.28038
G1 X176.43 Y130.90 E35.33158
G1 X177.40 Y132.21 E35.46183
G1 X177.76 Y132.75 E35.51333
G1 X178.55 Y134.12 E35.63966
G1 X178.79 Y134.61 E35.68309
G1 X179.26 Y135.65 E35.77431
G1 X179.42 Y136.04 E35.80779
G1 X179.83 Y137.16 E35.90311
G1 X180.02 Y137.78 E35.95496
G1 X180.47 Y139.68 E36.11126
G1 X180.57 Y140.31 E36.16163
G1 X180.72 Y141.57 E36.26351
G1 X180.76 Y142.21 E36.31463
G1 X180.79 Y157.00 E37.49602
G1 X180.77 Y157.46 E37.53214
G1 X180.62 Y159.35 E37.68413
G1 X180.51 Y160.09 E37.74355
G1 X180.16 Y161.68 E37.87367
G1 X180.03 Y162.20 E37.91666
G1 X179.66 Y163.34 E38.01255
G1 X179.47 Y163.85 E38.05589
G1 X178.84 Y165.30 E38.18194
G1 X178.55 Y165.87 E38.23284
G1 X177.74 Y167.28 E38.36308
G1 X177.38 Y167.82 E38.41473
G1 X176.44 Y169.09 E38.54096
G1 X176.09 Y169.50 E38.58396
G1 X175.29 Y170.39 E38.67939
G1 X174.91 Y170.76 E38.72174
G1 X173.74 Y171.82 E38.84799
G1 X173.23 Y172.23 E38.90023
G1 X171.90 Y173.18 E39.03069
G1 X171.36 Y173.52 E39.08176
G1 X169.93 Y174.31 E39.21204
G1 X169.35 Y174.59 E39.26363
G1 X167.88 Y175.18 E39.38993
G1 X167.38 Y175.36 E39.43295
G1 X166.23 Y175.70 E39.52844
G1 X165.71 Y175.83 E39.57145
G1 X164.21 Y176.12 E39.69326
G1 X163.68 Y176.20 E39.73602
G1 X162.55 Y176.31 E39.82636
G1 X162.15 Y176.33 E39.85900
G1 X161.08 Y176.35 E39.94431
G1 X160.63 Y176.35 E39.98009
G1 X159.46 Y176.28 E40.07369
G1 X158.92 Y176.22 E40.11675
G1 X157.36 Y175.97 E40.24296
G1 X156.73 Y175.84 E40.29437
G1 X155.11 Y175.38 E40.42903
G1 X154.40 Y175.13 E40.48907
G1 X152.45 Y174.29 E40.65876
G1 X151.69 Y173.88 E40.72771
G1 X149.90 Y172.75 E40.89696
G1 X149.29 Y172.31 E40.95635
G1 X148.00 Y171.23 E41.09115
G1 X147.53 Y170.78 E41.14335
G1 X146.48 Y169.67 E41.26493
G1 X146.21 Y169.36 E41.29794
G1 X145.74 Y168.77 E41.35858
G1 X145.47 Y168.41 E41.39437
G1 X144.60 Y167.14 E41.51693
G1 X144.27 Y166.59 E41.56827
G1 X144.19 Y166.43 E41.58288
G1 X143.81 Y166.56 E41.61424
G1 X142.97 Y166.79 E41.68437
G1 X142.42 Y166.92 E41.72967
G1 X140.55 Y167.25 E41.88095
G1 X139.89 Y167.32 E41.93391
G1 X138.70 Y167.38 E42.02923
G1 X138.26 Y167.39 E42.06446
G1 X137.11 Y167.36 E42.15601
G1 X136.54 Y167.31 E42.20159
G1 X134.92 Y167.10 E42.33206
G1 X134.16 Y166.95 E42.39414
G1 X132.18 Y166.40 E42.55870
G1 X131.44 Y166.14 E42.62131
G1 X129.89 Y165.46 E42.75593
G1 X129.30 Y165.16 E42.80911
G1 X127.85 Y164.31 E42.94360
G1 X127.20 Y163.87 E43.00585
G1 X125.59 Y162.58 E43.17055
G1 X125.01 Y162.05 E43.23323
G1 X123.82 Y160.78 E43.37238
G1 X123.32 Y160.18 E43.43457
G1 X122.13 Y158.50 E43.59887
G1 X121.73 Y157.84 E43.66090
G1 X120.97 Y156.36 E43.79406
G1 X120.70 Y155.74 E43.84748
G1 X120.17 Y154.31 E43.96970
G1 X120.03 Y153.89 E44.00506
G1 X119.80 Y153.09 E44.07097
G1 X119.68 Y152.54 E44.11626
G1 X119.35 Y150.68 E44.26754
G1 X119.28 Y150.02 E44.32050
G1 X119.21 Y148.82 E44.41615
G1 X119.21 Y148.37 E44.45209
G1 X119.24 Y147.23 E44.54332
G1 X119.28 Y146.67 E44.58779
G1 X119.49 Y145.11 E44.71365
G1 X119.61 Y144.45 E44.76765
G1 X120.00 Y142.93 E44.89303
G1 X120.16 Y142.40 E44.93656
G1 X120.57 Y141.28 E45.03233
G1 X120.80 Y140.75 E45.07796
G1 X121.48 Y139.33 E45.20401
G1 X121.81 Y138.75 E45.25729
G1 X122.72 Y137.34 E45.39169
G1 X123.19 Y136.71 E45.45387
G1 X124.54 Y135.16 E45.61817
G1 X125.08 Y134.60 E45.68029
G0 F7200 X125.52 Y135.07
G1 F1200 X126.72 Y134.02 E45.80765
G1 X127.14 Y133.69 E45.85046
G1 X128.10 Y133.01 E45.94388
G1 X128.53 Y132.73 E45.98531
G1 X129.87 Y131.98 E46.10783
G1 X130.44 Y131.70 E46.15823
G1 X131.85 Y131.11 E46.28099
G1 X132.35 Y130.93 E46.32274
G1 X133.51 Y130.58 E46.41988
G1 X134.12 Y130.43 E46.47021
G1 X135.98 Y130.11 E46.62086
G1 X136.60 Y130.04 E46.67062
G1 X137.79 Y129.97 E46.76531
G1 X138.22 Y129.97 E46.79990
G1 X139.34 Y130.00 E46.88930
G1 X139.86 Y130.04 E46.93112
G1 X141.39 Y130.24 E47.05407
G1 X142.01 Y130.35 E47.10490
G1 X143.50 Y130.74 E47.22772
